hero/solid/presentation-chart-bar.svg

<svg width="24" height="24" viewBox="0 0 24 24" fill="none" xmlns="http://www.w3.org/2000/svg">
<path fill-rule="evenodd" clip-rule="evenodd" d="M2.25 2.25C1.83579 2.25 1.5 2.58579 1.5 3C1.5 3.41421 1.83579 3.75 2.25 3.75H3V14.25C3 15.9069 4.34315 17.25 6 17.25H7.20943L6.03849 20.7628C5.9075 21.1558 6.11987 21.5805 6.51283 21.7115C6.90579 21.8425 7.33053 21.6301 7.46151 21.2372L7.79057 20.25H16.2094L16.5385 21.2372C16.6695 21.6301 17.0942 21.8425 17.4872 21.7115C17.8801 21.5805 18.0925 21.1558 17.9615 20.7628L16.7906 17.25H18C19.6569 17.25 21 15.9069 21 14.25V3.75H21.75C22.1642 3.75 22.5 3.41421 22.5 3C22.5 2.58579 22.1642 2.25 21.75 2.25H2.25ZM8.29057 18.75L8.79057 17.25H15.2094L15.7094 18.75H8.29057ZM15.75 6.75C15.75 6.33579 15.4142 6 15 6C14.5858 6 14.25 6.33579 14.25 6.75V12.75C14.25 13.1642 14.5858 13.5 15 13.5C15.4142 13.5 15.75 13.1642 15.75 12.75V6.75ZM12.75 9C12.75 8.58579 12.4142 8.25 12 8.25C11.5858 8.25 11.25 8.58579 11.25 9V12.75C11.25 13.1642 11.5858 13.5 12 13.5C12.4142 13.5 12.75 13.1642 12.75 12.75V9ZM9.75 11.25C9.75 10.8358 9.41421 10.5 9 10.5C8.58579 10.5 8.25 10.8358 8.25 11.25V12.75C8.25 13.1642 8.58579 13.5 9 13.5C9.41421 13.5 9.75 13.1642 9.75 12.75V11.25Z" fill="#0F172A"/>
</svg>

<svg viewBox="0 0 24 24" xmlns="http://www.w3.org/2000/svg"><path fill-rule="evenodd" d="M2.25 2.25v0c-.42 0-.75.33-.75.75 0 .41.33.75.75.75H3v10.5 0c0 1.65 1.34 3 3 3h1.21l-1.18 3.51h0c-.14.39.08.81.47.94 .39.13.81-.09.94-.48l.32-.99h8.41l.33.98v0c.14.38.57.58.96.43 .36-.14.56-.54.45-.92l-1.17-3.52h1.2v0c1.65 0 3-1.35 3-3V3.7h.75v0c.41 0 .75-.34.75-.75 0-.42-.34-.75-.75-.75H2.19Zm6.04 16.5l.5-1.5h6.42l.5 1.5H8.29Zm7.46-12v0c0-.42-.34-.75-.75-.75 -.42 0-.75.33-.75.75v6 0c0 .41.33.75.75.75 .41 0 .75-.34.75-.75v-6Zm-3 2.25v0c0-.42-.34-.75-.75-.75 -.42 0-.75.33-.75.75v3.75 0c0 .41.33.75.75.75 .41 0 .75-.34.75-.75V9Zm-3 2.25v0c0-.42-.34-.75-.75-.75 -.42 0-.75.33-.75.75v1.5 0c0 .41.33.75.75.75 .41 0 .75-.34.75-.75v-1.5Z"/></svg>
